X:773
T:White Petticoat
M:6/8
L:1/8
K:G
"Em"Bed cBA|GFE ^DEG|"Bm"FBB cBB|eBB cBA|
"Em"Bed cBA|GFE ^DEG|"Bm"FFB cBA|1 "Em"GEE E2 A/ :|2 GEE E2 g|
|:"C"gec Gce|gaf gec|"Em"cBA EAc|Be^d eBG|
FBB GBB|"Bm"FBA "Em"GFE|^DDG "Bm"cBA|"Em"GEE E3:|
